X:1
T:Barley Strow. JBut.228, The
T:Barley Strow. JBut.228, The
T:A Quick Step
C:A Quick Step
L:1/8
Q:1/2=100
M:4/4
K:G
V:1 treble 
V:1
 fe | d2 B2 B2 AB | d2 d2 e2 de | f2 f2 fgfe |"^NB1" d2 B2 B2 :: fg | a2 a2 a2 gf | a2 a2 a2 gf | %8
 g2 f2 e2 d2 | a2 A2 A2 fe | d2 B2 B2 AB | d2 d2 e2 de | f2 f2 fgfe | d2 B2 B2 :| %14

